!!!COM: Palestrina, Giovanni Perluigi da
!!!OPR: Missa L'homme arme (1570)
!!!OMD: Credo
!!!OTL: Et in Spiritum
**kern	**kern	**kern	**kern	**kern
*Ibass	*Itenor	*Itenor	*Icalto	*Icant
!Bassus	!Tenor 2	!Tenor 1	!Altus	!Cantus
*clefF4	*clefGv2	*clefGv2	*clefG2	*clefG2
*k[]	*k[]	*k[]	*k[]	*k[]
*G:mix	*G:mix	*G:mix	*G:mix	*G:mix
*M3/2	*M3/2	*M3/2	*M3/2	*M3/2
=165	=165	=165	=165	=165
1r	1r	[1.G	1b	1dd
2r	2r	.	2b	2dd
=166	=166	=166	=166	=166
1C	1c	1.G]	2.cc	2.ee
.	.	.	4cc	4ee
2C	2c	.	2cc	2ee
=167	=167	=167	=167	=167
2.G	2.d	1.G	1b	1dd
4G	4d	.	.	.
2G	2d	.	2g	2b
=168	=168	=168	=168	=168
1F	1f	[1.c	2.a	1cc
.	.	.	4b	.
2E	2g	.	[2cc	2cc
=169	=169	=169	=169	=169
1F	1f	1.c]	4cc]	2.a
.	.	.	4b	.
.	.	.	2a	.
.	.	.	.	4b
2F	2f	.	2a	4cc
.	.	.	.	4dd
=170	=170	=170	=170	=170
1.C	2.e	1.c	1.g	1.ee
.	4d	.	.	.
.	2c	.	.	.
=171	=171	=171	=171	=171
1G	1d	1.B	1g	1dd
2E	2g	.	2g	2ee
=172	=172	=172	=172	=172
2.F	1f	[1.A	2.a	2cc
.	.	.	.	2cc
4E	.	.	4g	.
2D	[2a	.	2f	2dd
=173	=173	=173	=173	=173
2C	2a]	1.A]	2e	2ee
1D	1a	.	1f#	2.dd
.	.	.	.	4cc
=174	=174	=174	=174	=174
1.G	1.d	[1.G	2g	1b
.	.	.	2r	.
.	.	.	2d	2dd
=175	=175	=175	=175	=175
1r	1r	1.G]	2e	2g
.	.	.	1g	1b
2r	2r	.	.	.
=176	=176	=176	=176	=176
1r	1r	1r	2f#	2a
.	.	.	2g	2b
2r	2r	2r	2e	2cc
=177	=177	=177	=177	=177
1r	1r	1r	2f#	2a
.	.	.	2.g	1b
2r	2r	2r	.	.
.	.	.	4f	.
=178	=178	=178	=178	=178
1r	1r	1r	2e	2cc
.	.	.	2d	2.dd
2r	2r	2r	2e	.
.	.	.	.	4cc
=179	=179	=179	=179	=179
1r	1r	1r	2f	1cc
.	.	.	1d	.
2G	2g	2r	.	2b
=180	=180	=180	=180	=180
2A	2f	1r	1.c	1.cc
1c	1e	.	.	.
.	.	2r	.	.
=181	=181	=181	=181	=181
2B	2d	1r	1r	1r
2c	2e	.	.	.
2A	2f	2r	2r	2r
=182	=182	=182	=182	=182
2B	2d	1r	1r	1r
1c	1e	.	.	.
.	.	2r	2r	2r
=183	=183	=183	=183	=183
2.G	2.g	[1.d	2.B	2.dd
4G	4g	.	4B	4dd
2G	2g	.	2B	2dd
=184	=184	=184	=184	=184
2G	2g	1.d]	2B	2dd
1D	1f#	.	1A	1dd
=185	=185	=185	=185	=185
1.G	2g	1.d	2G	2b
.	2r	.	2r	2r
.	2G	.	2g	2b
=186	=186	=186	=186	=186
1r	2.G	[1.d	2.g	2.b
.	4G	.	4g	4b
2r	2G	.	2g	2b
=187	=187	=187	=187	=187
1r	2G	1.d]	2g	2b
.	1d	.	1f#	1a
2r	.	.	.	.
=188	=188	=188	=188	=188
2r	2d	1.G	2g	2b
2G	2d	.	2g	2b
2G	2d	.	2g	2b
=189	=189	=189	=189	=189
1c	1e	1r	1g	1cc
2A	2e	2r	2a	2cc
=190	=190	=190	=190	=190
1G	1g	[1.d	1b-	1.dd
2G	2G	.	2b-	.
=191	=191	=191	=191	=191
2F	2A	1.d]	2a	1dd
1G	1B-	.	1g	.
.	.	.	.	2dd
=192	=192	=192	=192	=192
[1.D	2A	1.d	2.f	2.dd
.	2.d	.	.	.
.	.	.	4e	4cc
.	.	.	4f	4b-
.	4c	.	4e	4a
=193	=193	=193	=193	=193
2D]	4B-	1.d	4d	2.a
.	4A	.	4c	.
1r	1B-	.	1d	.
.	.	.	.	8g
.	.	.	.	8f
.	.	.	.	2g
=194	=194	=194	=194	=194
2r	2A	1.c	2e	1.a
1A	2r	.	2r	.
.	2c	.	2e	.
=195	=195	=195	=195	=195
1G	1d	1.B	1g	1r
2E	2e	.	2g	2r
=196	=196	=196	=196	=196
1F	1c	[1.A	2a	1r
.	.	.	2f	.
2D	2d	.	2f	2r
=197	=197	=197	=197	=197
2C	2e	1.A]	1e	1r
2F	2c	.	.	.
2F	2A	.	2d	2r
=198	=198	=198	=198	=198
2E	2B	[1.G	1e	1r
1C	1g	.	.	.
.	.	.	2cc	2ee
=199	=199	=199	=199	=199
1G	1g	1.G]	1b	1dd
2G	2d	.	2g	2b
=200	=200	=200	=200	=200
2.F	2.f	1r	2.a	2.cc
4F	4f	.	4a	4cc
2F	2c	2r	2f	2a
=201	=201	=201	=201	=201
2c	2c	1r	2e	2g
2A	2e	.	2c	2cc
2A	2f#	2r	2c	2cc
=202	=202	=202	=202	=202
1.G	2g	[1.g	1d	1b
.	2r	.	.	.
.	2G	.	2d	2b
=203	=203	=203	=203	=203
1r	1c	1.g]	1e	1cc
2C	2c	.	2e	2cc
=204	=204	=204	=204	=204
1G	1B	1.g	1d	1dd
2G	2G	.	2d	2dd
=205	=205	=205	=205	=205
1.D	1A	1.f	2d	2.ff
.	.	.	2d	.
.	.	.	.	4ee
.	[2B-	.	4d	2dd
.	.	.	4e	.
=206	=206	=206	=206	=206
1r	2B-]	1.f	4f	2dd
.	.	.	4g	.
.	1A	.	1a	1cc
2r	.	.	.	.
=207	=207	=207	=207	=207
2r	1G	[1.g	2d	2b
2G	.	.	2d	2b
2C	2r	.	2e	2cc
=208	=208	=208	=208	=208
1G	1B	1.g]	1d	1dd
2C	2c	.	2c	2ee
=209	=209	=209	=209	=209
1G	1d	1.g	1B	1dd
2C	2e	.	2G	2cc
=210	=210	=210	=210	=210
1G	2B	[1.d	4G	2dd
.	.	.	4A	.
.	2d	.	4B	2g
.	.	.	4c	.
[2G	2B	.	2d	[2b
=211	=211	=211	=211	=211
2G]	2G	1.d]	1g	4b]
.	.	.	.	4cc
1D	1A	.	.	1dd
.	.	.	2f#	.
=212	=212	=212	=212	=212
1G	1B	1d	1g	1b
2r	2r	2r	2r	2r
*-	*-	*-	*-	*-
!!!CDT: 1525/^1526/-1594/2/2
!!!OCY: Italia
!!!AGN: Mass (Tenor)
!!!AST: renaissance, vocal
!!!ASW: Popular Song
!!!PWK: Masses, Book 3
!!!RNB: Cadence finals: C,D
!!!YOR: Le Opere Complete, v. 6, p. 97
!!!YOO: Rome, Italy: Fratelli Scalera
!!!END: 1992//
!!!EED: John Miller
!!!YEC: Copyright 2000, John Miller
!!!YEN: United States of America
!!!YEM: Rights to all derivative electronic formats reserved.
!!!YEM: Refer to licensing agreement for further details.
!!!YEM: This file must be accompanied by the licensing agreement.
!!!YEM: A copy of the licensing agreement may be found at http://www.music-cog.ohio-state.edu/HumdrumDatabases/Palestrina/license.txt
!!!EMD: converted to Humdrum by Bret Aarden
